X: 5
T: Lanigan's Ball
R: jig
M: 6/8
L: 1/8
K: Emin
EFE G2A|B2A B^cd|D2E F2G|ABA AFD|
EFE G2A|B2A B^cd|e2B c2A|BGE E3:|
|:e2f g2e|fag fed|e2f g2e|fdB B2e|
e2f g2e|fag fed|e2B c2A|BGE E3:||


Tune 264	Setting 13004

